packages/kaspersky-hexa-ui-icons/src/iconsSVGs/48/Web.svg

<svg width="48" height="48" viewBox="0 0 48 48" fill="none" xmlns="http://www.w3.org/2000/svg">
<path fill-rule="evenodd" clip-rule="evenodd" d="M24 0C10.7452 0 0 10.7452 0 24C0 37.2548 10.7452 48 24 48C37.2548 48 48 37.2548 48 24C48 17.6348 45.4714 11.5303 40.9706 7.02944C36.4697 2.52856 30.3652 0 24 0ZM13.5 24C13.5002 21.9927 13.6406 19.9878 13.92 18H23V30H13.92C13.6406 28.0122 13.5002 26.0073 13.5 24ZM25 2.11C28.93 2.93 32.31 8.52 33.75 16H25V2.11ZM23 2.11V16H14.25C15.69 8.52 19.07 2.93 23 2.11ZM23 32V45.89C19.07 45.07 15.69 39.48 14.25 32H23ZM25 45.89V32H33.75C32.31 39.48 28.93 45.07 25 45.89ZM25 30V18H34.08C34.3594 19.9878 34.4998 21.9927 34.5 24C34.4998 26.0073 34.3594 28.0122 34.08 30H25ZM36.12 18H45.12C46.2399 21.9216 46.2399 26.0784 45.12 30H36.12C36.3764 28.0103 36.5034 26.0061 36.5 24C36.5034 21.9939 36.3764 19.9897 36.12 18ZM44.49 16H35.81C34.81 10.29 32.71 5.62 29.98 2.83C36.6026 4.72272 41.9664 9.59115 44.49 16ZM18 2.83C15.29 5.62 13.21 10.29 12.19 16H3.51C6.02945 9.59576 11.3849 4.72813 18 2.83ZM2.84 18H11.84C11.3334 21.984 11.3334 26.016 11.84 30H2.84C1.72008 26.0784 1.72008 21.9216 2.84 18ZM3.51 32H12.19C13.19 37.71 15.29 42.38 18.02 45.17C11.3974 43.2773 6.03358 38.4089 3.51 32ZM30 45.17C32.73 42.38 34.81 37.71 35.83 32H44.51C41.9864 38.4089 36.6227 43.2773 30 45.17Z"  fill="currentColor"/>
</svg>

<svg xmlns="http://www.w3.org/2000/svg" width="48" height="48" fill="none" viewBox="0 0 48 48"><path fill="currentColor" fill-rule="evenodd" d="M24 0C10.7452 0 0 10.7452 0 24s10.7452 24 24 24 24-10.7452 24-24A24 24 0 0 0 24 0M13.5 24a43.1 43.1 0 0 1 .42-6H23v12h-9.08a43.1 43.1 0 0 1-.42-6M25 2.11c3.93.82 7.31 6.41 8.75 13.89H25zm-2 0V16h-8.75C15.69 8.52 19.07 2.93 23 2.11M23 32v13.89c-3.93-.82-7.31-6.41-8.75-13.89zm2 13.89V32h8.75c-1.44 7.48-4.82 13.07-8.75 13.89M25 30V18h9.08a43.1 43.1 0 0 1 .42 6 43.1 43.1 0 0 1-.42 6zm11.12-12h9a21.85 21.85 0 0 1 0 12h-9a46.3 46.3 0 0 0 .38-6 46.3 46.3 0 0 0-.38-6m8.37-2h-8.68c-1-5.71-3.1-10.38-5.83-13.17A22.13 22.13 0 0 1 44.49 16M18 2.83c-2.71 2.79-4.79 7.46-5.81 13.17H3.51A22.13 22.13 0 0 1 18 2.83M2.84 18h9a47.57 47.57 0 0 0 0 12h-9a21.85 21.85 0 0 1 0-12m.67 14h8.68c1 5.71 3.1 10.38 5.83 13.17A22.13 22.13 0 0 1 3.51 32M30 45.17c2.73-2.79 4.81-7.46 5.83-13.17h8.68A22.13 22.13 0 0 1 30 45.17" clip-rule="evenodd"/></svg>
